.local/share/icons/Gruvbox-Plus-Dark/mimetypes/scalable/application-dart.svg

<svg width="256" height="256" viewBox="0 0 256 256" fill="none" xmlns="http://www.w3.org/2000/svg">
<g opacity="0.4" filter="url(#filter0_f)">
<path d="M55.0839 15.5636H155.608L216.009 75.7129L216.011 224.609C216.011 233.52 208.749 240.737 199.838 240.737H55.0838C46.1734 240.737 39 233.564 39 224.654V31.6474C39 22.737 46.1734 15.5636 55.0838 15.5636H55.0839Z" fill="#282828"/>
</g>
<path d="M55.0839 15H155.608L216.009 75.1493L216.011 224.045C216.011 232.956 208.749 240.174 199.838 240.174H55.0838C46.1734 240.174 39 233 39 224.09V31.0838C39 22.1734 46.1734 15 55.0838 15H55.0839Z" fill="#ebdbb2"/>
<path fill-rule="evenodd" clip-rule="evenodd" d="M155.608 20.3191H55.0839C49.1112 20.3191 44.3191 25.1111 44.3191 31.0838V224.09C44.3191 230.063 49.1111 234.855 55.0838 234.855H199.838C205.83 234.855 210.692 229.999 210.692 224.046V75.1493L155.608 20.3191ZM155.608 15H55.0839C46.1735 15 39 22.1734 39 31.0838V224.09C39 233 46.1734 240.174 55.0838 240.174H199.838C208.749 240.174 216.011 232.956 216.011 224.045L216.009 75.1493L155.608 15Z" fill="url(#paint0_linear)"/>
<path d="M95.939 166.571L71.9497 143.001C69.5164 140.497 68 136.971 68 133.523C68 131.928 68.8993 129.433 69.5781 127.996L89.4286 89.4286L95.939 166.571Z" fill="url(#paint1_linear)"/>
<path d="M162.741 92.4743L142.216 71.9497C140.427 70.1512 136.689 68 133.532 68C130.817 68 128.154 68.5466 126.426 69.5781L89.4286 89.4286L162.741 92.4743Z" fill="url(#paint2_linear)"/>
<path d="M129.583 154.842L95.939 166.571L116.949 188H166.571V166.571L129.583 154.842Z" fill="url(#paint3_linear)"/>
<path d="M89.4286 152.049C89.4286 158.379 89.3269 159.939 92.4831 163.104L95.939 166.571H167.004L131.954 127.22L89.4286 89.4286V152.049Z" fill="url(#paint4_linear)"/>
<path d="M151.685 89.4286H89.4286L166.571 166.571H188V117.733L162.741 92.4743C159.197 88.9125 156.041 89.4286 151.685 89.4286Z" fill="url(#paint5_linear)"/>
<path opacity="0.25" d="M155.608 17V61.2306C155.608 70.141 162.867 77.1605 171.777 77.1605L216.009 77.1493V75.1493L155.608 17Z" fill="#282828"/>
<path d="M155.608 15V59.2306C155.608 68.141 162.867 75.1605 171.777 75.1605L216.009 75.1493L155.608 15Z" fill="url(#paint6_linear)"/>
<defs>
<filter id="filter0_f" x="23.8778" y="0.441412" width="207.255" height="255.418" filterUnits="userSpaceOnUse" color-interpolation-filters="sRGB">
<feFlood flood-opacity="0" result="BackgroundImageFix"/>
<feBlend mode="normal" in="SourceGraphic" in2="BackgroundImageFix" result="shape"/>
<feGaussianBlur stdDeviation="7.5611" result="effect1_foregroundBlur"/>
</filter>
<linearGradient id="paint0_linear" x1="39" y1="15" x2="39" y2="240.174" gradientUnits="userSpaceOnUse">
<stop offset="1e-07" stop-color="#076678"/>
<stop offset="1" stop-color="#458588"/>
</linearGradient>
<linearGradient id="paint1_linear" x1="68" y1="89.4286" x2="68" y2="166.571" gradientUnits="userSpaceOnUse">
<stop offset="1e-07" stop-color="#076678"/>
<stop offset="1" stop-color="#458588"/>
</linearGradient>
<linearGradient id="paint2_linear" x1="103.153" y1="68.1124" x2="103.177" y2="92.4436" gradientUnits="userSpaceOnUse">
<stop stop-color="#83a598"/>
<stop offset="1" stop-color="#458588"/>
</linearGradient>
<linearGradient id="paint3_linear" x1="130.818" y1="154.829" x2="130.857" y2="188.11" gradientUnits="userSpaceOnUse">
<stop stop-color="#83a598"/>
<stop offset="1" stop-color="#458588"/>
</linearGradient>
<linearGradient id="paint4_linear" x1="103.951" y1="89.7828" x2="104.174" y2="166.474" gradientUnits="userSpaceOnUse">
<stop stop-color="#83a598"/>
<stop offset="1" stop-color="#458588"/>
</linearGradient>
<linearGradient id="paint5_linear" x1="89.4286" y1="89.4025" x2="89.4286" y2="166.571" gradientUnits="userSpaceOnUse">
<stop offset="1e-07" stop-color="#076678"/>
<stop offset="1" stop-color="#458588"/>
</linearGradient>
<linearGradient id="paint6_linear" x1="185.435" y1="14.977" x2="185.585" y2="75.3591" gradientUnits="userSpaceOnUse">
<stop stop-color="#83a598"/>
<stop offset="1" stop-color="#458588"/>
</linearGradient>
</defs>
</svg>

<svg width="256" height="256" fill="none" version="1.1" viewBox="0 0 256 256" xmlns="http://www.w3.org/2000/svg">
  <path d="m55.08 15h100.5l60.4 60.15 2e-3 148.9c0 8.911-7.262 16.13-16.17 16.13h-144.8c-8.91 0-16.08-7.174-16.08-16.08v-193c0-8.91 7.173-16.08 16.08-16.08h1e-4z" fill="#ebdbb2"/>
  <path d="m155.6 20.32h-100.5c-5.973 0-10.76 4.792-10.76 10.76v193c0 5.973 4.792 10.76 10.76 10.76h144.8c5.992 0 10.85-4.856 10.85-10.81v-148.9l-55.08-54.83zm0-5.319h-100.5c-8.91 0-16.08 7.173-16.08 16.08v193c0 8.91 7.173 16.08 16.08 16.08h144.8c8.911 0 16.17-7.218 16.17-16.13l-2e-3 -148.9-60.4-60.15z" clip-rule="evenodd" fill="url(#paint0_linear)" fill-rule="evenodd"/>
  <path d="m95.94 166.6-23.99-23.57c-2.433-2.504-3.95-6.03-3.95-9.478 0-1.595 0.8993-4.09 1.578-5.527l19.85-38.57 6.51 77.14z" fill="url(#paint1_linear)"/>
  <path d="m162.7 92.47-20.52-20.52c-1.789-1.798-5.527-3.95-8.684-3.95-2.715 0-5.378 0.5466-7.106 1.578l-37 19.85 73.31 3.046z" fill="url(#paint2_linear)"/>
  <path d="m129.6 154.8-33.64 11.73 21.01 21.43h49.62v-21.43l-36.99-11.73z" fill="url(#paint3_linear)"/>
  <path d="m89.43 152c0 6.33-0.1017 7.89 3.054 11.06l3.456 3.467h71.06l-35.05-39.35-42.53-37.79v62.62z" fill="url(#paint4_linear)"/>
  <path d="m151.7 89.43h-62.26l77.14 77.14h21.43v-48.84l-25.26-25.26c-3.544-3.562-6.7-3.046-11.06-3.046z" fill="url(#paint5_linear)"/>
  <path d="m155.6 17v44.23c0 8.91 7.259 15.93 16.17 15.93l44.23-0.0112v-2l-60.4-58.15z" fill="#282828" opacity=".25"/>
  <path d="m155.6 15v44.23c0 8.91 7.259 15.93 16.17 15.93l44.23-0.0112-60.4-60.15z" fill="url(#paint6_linear)"/>
  <defs>
    <linearGradient id="paint0_linear" x1="39" x2="39" y1="15" y2="240.2" gradientUnits="userSpaceOnUse">
      <stop stop-color="#076678" offset="1e-7"/>
      <stop stop-color="#458588" offset="1"/>
    </linearGradient>
    <linearGradient id="paint1_linear" x1="68" x2="68" y1="89.43" y2="166.6" gradientUnits="userSpaceOnUse">
      <stop stop-color="#076678" offset="1e-7"/>
      <stop stop-color="#458588" offset="1"/>
    </linearGradient>
    <linearGradient id="paint2_linear" x1="103.2" x2="103.2" y1="68.11" y2="92.44" gradientUnits="userSpaceOnUse">
      <stop stop-color="#83a598" offset="0"/>
      <stop stop-color="#458588" offset="1"/>
    </linearGradient>
    <linearGradient id="paint3_linear" x1="130.8" x2="130.9" y1="154.8" y2="188.1" gradientUnits="userSpaceOnUse">
      <stop stop-color="#83a598" offset="0"/>
      <stop stop-color="#458588" offset="1"/>
    </linearGradient>
    <linearGradient id="paint4_linear" x1="104" x2="104.2" y1="89.78" y2="166.5" gradientUnits="userSpaceOnUse">
      <stop stop-color="#83a598" offset="0"/>
      <stop stop-color="#458588" offset="1"/>
    </linearGradient>
    <linearGradient id="paint5_linear" x1="89.43" x2="89.43" y1="89.4" y2="166.6" gradientUnits="userSpaceOnUse">
      <stop stop-color="#076678" offset="1e-7"/>
      <stop stop-color="#458588" offset="1"/>
    </linearGradient>
    <linearGradient id="paint6_linear" x1="185.4" x2="185.6" y1="14.98" y2="75.36" gradientUnits="userSpaceOnUse">
      <stop stop-color="#83a598" offset="0"/>
      <stop stop-color="#458588" offset="1"/>
    </linearGradient>
  </defs>
</svg>
